public/img/icon-note-modifi.svg

<svg height="24" viewBox="0 0 24 24" width="24" xmlns="http://www.w3.org/2000/svg"><path d="m16.9598654 15.0222574-4.5866936-4.5866936c.4536291-1.15927418.2016129-2.52016128-.7560484-3.47782257-1.0080645-1.00806452-2.52016125-1.20967742-3.72983867-.65524194l2.16733867 2.16733871-1.51209674 1.51209678-2.21774193-2.16733871c-.60483871 1.20967742-.35282258 2.72177423.65524193 3.72983873.95766129.9576613 2.31854839 1.2096774 3.47782254.7560484l4.5866936 4.5866935c.2016129.2016129.5040322.2016129.7056452 0l1.1592741-1.1592742c.2520162-.2016129.2520162-.5544355.0504033-.7056451z" fill="#fff"/></svg>

<?xml version="1.0" encoding="UTF-8"?>
<svg width="24px" height="24px" viewBox="0 0 24 24" version="1.1" xmlns="http://www.w3.org/2000/svg" xmlns:xlink="http://www.w3.org/1999/xlink">
    <title>icon-note-modifi</title>
    <g id="icon-note-modifi" stroke="none" stroke-width="1" fill="none" fill-rule="evenodd">
        <path d="M16.9598654,15.0222574 L12.3731718,10.4355638 C12.8268009,9.27628962 12.5747847,7.91540252 11.6171234,6.95774123 C10.6090589,5.94967671 9.09696215,5.74806381 7.88728473,6.30249929 L10.0546234,8.469838 L8.54252666,9.98193478 L6.32478473,7.81459607 C5.71994602,9.02427349 5.97196215,10.5363703 6.98002666,11.5444348 C7.93768795,12.5020961 9.29857505,12.7541122 10.4578492,12.3004832 L15.0445428,16.8871767 C15.2461557,17.0887896 15.548575,17.0887896 15.750188,16.8871767 L16.9094621,15.7279025 C17.1614783,15.5262896 17.1614783,15.173467 16.9598654,15.0222574 Z" id="Shape" fill="#FFFFFF" fill-rule="nonzero"></path>
    </g>
</svg>
